X:23
M:2/4
L:1/8
K:D
[eg][eg][df][df] | [eg][eg] [d2f2] | [eg][eg][df][df] | [eg][eg] [d2f2] | Dd/c/
dd | fd f2 | af a/g/f/e/ | d2D2 |

